public/images/farms/atm-bnb.svg

<svg width="160" height="160" viewBox="0 0 160 160" fill="none" xmlns="http://www.w3.org/2000/svg">
<g clip-path="url(#clip0)">
<path d="M48.045 119.028C44.8667 131.172 63.0449 146.449 88.6472 153.149C114.25 159.849 137.581 155.436 140.759 143.291C143.937 131.146 125.759 115.87 100.157 109.169C74.5546 102.469 51.2233 106.883 48.045 119.028Z" fill="#606063"/>
<path d="M136.924 149.273L152.346 132.988L42.9922 104.369L48.7128 126.187L136.924 149.273Z" fill="#606063"/>
<path d="M49.9337 108.293L8.07245 97.338C6.25796 96.8632 4.41259 97.9924 4.00962 99.8242L3.54142 101.953C2.60839 106.194 5.11954 110.433 9.28748 111.653L51.0994 123.892L49.9337 108.293Z" fill="#606063"/>
<path d="M43.2026 98.7096C39.5089 112.824 61.5267 130.811 92.3808 138.886C123.235 146.96 151.241 142.064 154.935 127.95C158.629 113.836 136.611 95.8488 105.757 87.7742C74.9028 79.6996 46.8963 84.5955 43.2026 98.7096Z" fill="url(#paint0_linear)"/>
<path fill-rule="evenodd" clip-rule="evenodd" d="M127.673 123.286C134.771 128.506 138.919 134.152 139.538 139.157L142.516 138.789C141.744 132.551 136.779 126.258 129.45 120.869C122.061 115.434 112.011 110.721 100.537 107.718C89.0628 104.716 77.9927 103.901 68.888 105.019C59.8593 106.128 52.4479 109.182 48.7196 114.242L51.1348 116.021C54.1263 111.961 60.5082 109.071 69.2536 107.997C77.9231 106.933 88.6081 107.698 99.7773 110.621C110.946 113.544 120.636 118.111 127.673 123.286Z" fill="#606063"/>
<path fill-rule="evenodd" clip-rule="evenodd" d="M56.7343 118.739C48.0136 111.615 44.7365 104.698 46.1049 99.4692C47.4733 94.2403 53.7186 89.8155 64.8112 87.8763C75.6178 85.9872 89.8893 86.7226 104.997 90.6764C120.105 94.6302 132.908 100.98 141.403 107.921C150.124 115.045 153.401 121.962 152.033 127.191C150.664 132.42 144.419 136.844 133.326 138.784C122.52 140.673 108.248 139.937 93.1403 135.984C78.0323 132.03 65.2301 125.68 56.7343 118.739ZM92.3808 138.886C61.5267 130.811 39.5089 112.824 43.2026 98.7096C46.8963 84.5955 74.9028 79.6996 105.757 87.7742C136.611 95.8488 158.629 113.836 154.935 127.95C151.241 142.064 123.235 146.96 92.3808 138.886Z" fill="#979797"/>
<path fill-rule="evenodd" clip-rule="evenodd" d="M45.1673 124.049L40.2305 104.926L43.1352 104.176L48.0721 123.299L45.1673 124.049Z" fill="url(#paint1_linear)"/>
<path fill-rule="evenodd" clip-rule="evenodd" d="M43.4691 106.189C43.4241 106.041 43.3812 105.893 43.3406 105.746C43.2656 105.473 43.1983 105.2 43.1386 104.929L42.997 104.389C42.9948 104.38 43.0025 104.372 43.0109 104.375C43.019 104.377 43.0266 104.37 43.0251 104.362C43.0236 104.353 43.0222 104.345 43.0207 104.337C42.9732 104.072 42.9333 103.807 42.9009 103.543C42.8931 103.479 42.8857 103.416 42.8788 103.352C42.8065 102.689 42.7824 102.031 42.8078 101.378C42.8079 101.378 42.8079 101.378 42.8079 101.377C42.8432 100.475 42.9734 99.5849 43.2025 98.7095C46.8962 84.5954 74.9027 79.6994 105.757 87.774C136.611 95.8486 158.629 113.836 154.935 127.95C154.706 128.826 154.383 129.666 153.972 130.469C153.972 130.469 153.972 130.47 153.972 130.47C153.528 131.338 152.981 132.163 152.337 132.945C152.332 132.951 152.326 132.958 152.321 132.964C152.319 132.967 152.318 132.969 152.318 132.972C152.318 132.977 152.322 132.982 152.327 132.983C152.332 132.984 152.335 132.989 152.336 132.993C152.336 132.996 152.335 133 152.333 133.002L151.725 133.644C151.655 133.72 151.584 133.795 151.511 133.87L150.275 135.175L150.273 135.177L138.793 147.299C131.986 156.33 111.197 159.051 88.6472 153.149C66.3446 147.312 49.6757 134.967 47.8505 123.854C47.7571 123.285 47.3667 122.8 46.8135 122.639L10.1271 111.91C5.98342 110.698 3.4722 106.499 4.36483 102.275L4.82393 100.103C5.21371 98.2581 7.06553 97.1133 8.88976 97.589L43.1386 106.52C43.3391 106.573 43.5217 106.39 43.4691 106.189ZM39.8119 102.553C39.7482 101.009 39.9029 99.4681 40.3002 97.9499C42.6255 89.0648 52.2303 83.9845 63.7779 81.9658C75.6114 79.8971 90.7702 80.751 106.516 84.8718C122.262 88.9926 135.896 95.6738 145.199 103.274C154.277 110.691 160.162 119.825 157.837 128.71C157.28 130.839 156.285 132.774 154.936 134.499C154.821 134.697 154.679 134.887 154.511 135.065L153.923 135.686C153.92 135.689 153.916 135.693 153.913 135.697C153.836 135.779 153.759 135.861 153.68 135.943C153.677 135.946 153.673 135.95 153.67 135.953L141.082 149.246C136.911 154.652 129.056 157.706 119.984 158.802C110.684 159.926 99.4667 159.082 87.8877 156.051C76.4351 153.054 66.3397 148.366 58.8095 142.91C51.73 137.78 46.4882 131.648 45.0667 125.253L9.28503 114.789C3.63618 113.137 0.212785 107.413 1.42965 101.655L1.88875 99.4823C2.63251 95.9628 6.16596 93.7783 9.64679 94.6861L39.8119 102.553Z" fill="url(#paint2_linear)"/>
<circle cx="57" cy="29" r="29" fill="#F0B90B"/>
<path d="M46.1846 28.9998L41.7476 33.4676L37.2798 28.9998L41.7476 24.532L46.1846 28.9998ZM56.9998 18.1846L64.6413 25.8261L69.1091 21.3583L61.4676 13.7476L56.9998 9.27979L52.532 13.7476L44.9213 21.3583L49.3891 25.8261L56.9998 18.1846ZM72.252 24.532L67.815 28.9998L72.2828 33.4676L76.7198 28.9998L72.252 24.532ZM56.9998 39.815L49.3583 32.1735L44.9213 36.6413L52.5628 44.2828L56.9998 48.7198L61.4676 44.252L69.1091 36.6105L64.6413 32.1735L56.9998 39.815ZM56.9998 33.4676L61.4676 28.9998L56.9998 24.532L52.532 28.9998L56.9998 33.4676Z" fill="#FFFDFA"/>
<g style="mix-blend-mode:multiply" opacity="0.1">
<path fill-rule="evenodd" clip-rule="evenodd" d="M57 55C71.3594 55 83 43.3594 83 29C83 14.6406 71.3594 3 57 3C42.6406 3 31 14.6406 31 29C31 43.3594 42.6406 55 57 55ZM57 58C73.0163 58 86 45.0163 86 29C86 12.9837 73.0163 0 57 0C40.9837 0 28 12.9837 28 29C28 45.0163 40.9837 58 57 58Z" fill="#191326"/>
</g>
<circle cx="106.835" cy="72.5" r="43.5" fill="white"/>
<circle cx="106.835" cy="72.5" r="43.5" fill="white"/>
<path fill-rule="evenodd" clip-rule="evenodd" d="M106.667 112.394C128.793 112.394 146.729 94.4579 146.729 72.3326C146.729 50.2073 128.793 32.2712 106.667 32.2712C84.542 32.2712 66.6059 50.2073 66.6059 72.3326C66.6059 94.4579 84.542 112.394 106.667 112.394ZM106.667 114.327C129.86 114.327 148.662 95.5254 148.662 72.3326C148.662 49.1398 129.86 30.3384 106.667 30.3384C83.4746 30.3384 64.6731 49.1398 64.6731 72.3326C64.6731 95.5254 83.4746 114.327 106.667 114.327Z" fill="#262F61"/>
<path d="M128.919 49.9632C128.919 47.6466 127.363 46.9288 125.125 46.3579C121.866 45.4932 115.137 44.0576 106.835 44.0576C98.5326 44.0576 91.8035 45.4932 88.5443 46.3579C86.3066 46.9452 84.75 47.6466 84.75 49.9795V82.4765V82.4928V82.5091C84.7824 85.2172 86.0472 87.7785 88.1551 89.3772L105.505 102.608L106.835 103.619L108.164 102.608L125.514 89.3772C127.638 87.7622 128.919 85.1846 128.919 82.4928V49.9632Z" fill="white"/>
<path d="M106.835 44.0576C98.5164 44.0576 91.8035 45.4936 88.5443 46.3585C86.3066 46.9459 84.75 47.6476 84.75 49.9648V82.4707V82.487V82.5034C84.7824 85.2122 86.0472 87.7742 88.1551 89.3733L105.505 102.607L106.835 103.619L108.164 102.607L125.514 89.3733C127.638 87.7578 128.919 85.1796 128.919 82.487V49.9648C128.919 47.6476 127.363 46.9296 125.125 46.3585C121.866 45.4936 115.153 44.0576 106.835 44.0576ZM106.364 45.7384L106.883 47.3702L108.586 47.3702L107.208 48.3819L107.726 50.0138L106.348 49.002L104.97 50.0138L105.489 48.3819L104.111 47.3702H105.813L106.364 45.7384ZM87.9605 48.1209L88.4794 49.7527H90.182L88.8037 50.7644L89.3226 52.3962L87.9443 51.3845L86.5661 52.3962L87.0849 50.7644L85.7067 49.7527H87.4092L87.9605 48.1209ZM124.363 48.1209L124.882 49.7527H126.584L125.206 50.7644L125.725 52.3962L124.347 51.3845L122.968 52.3962L123.487 50.7644L122.109 49.7527H123.812L124.363 48.1209ZM116.337 50.846C116.499 50.8623 116.661 50.895 116.807 50.9113C117.277 50.9765 117.731 51.0418 118.169 51.1234C118.607 51.1887 119.044 51.2703 119.45 51.3519L107.856 60.2127V54.1423C109.688 55.2356 110.921 55.1214 111.715 54.6155C112.169 54.3218 112.477 53.8975 112.672 53.5059C114.666 54.0933 116.855 52.8531 116.337 50.846ZM95.0789 51.1887C95.0951 51.3519 95.1275 51.515 95.1761 51.6782V51.6945V51.7109C95.6788 53.2611 97.7381 54.0607 99.6514 53.5059C100.008 54.2239 100.851 54.8603 102.035 55.0235C102.83 55.1377 103.786 55.0235 104.84 54.5992V62.5299L97.5759 68.0781C97.5922 67.8986 97.6084 67.7191 97.6084 67.5069V67.4416V67.3274V67.2785C98.4029 66.7889 99.1001 65.8261 99.4569 64.6023C99.619 64.0638 99.6839 63.5253 99.6677 63.0194C99.5217 63.0847 99.3596 63.1336 99.2136 63.1499C98.8245 63.2315 98.5002 63.1989 98.5002 63.1989C99.1326 63.1499 99.6028 62.9052 99.8947 62.6767C99.9757 62.5951 100.073 62.5135 100.187 62.3993C100.819 61.7466 101.224 61.0123 101.468 60.1311L102.667 55.921C102.051 55.8557 101.435 56.1657 101.111 56.6879L100.527 57.6017L99.9595 58.4993C99.8298 58.7114 99.6028 58.9072 99.3434 59.0541C98.9542 58.744 98.6299 58.4993 98.3867 58.3034C98.3543 58.2708 98.3218 58.2382 98.2732 58.2218L97.9002 56.639L98.4515 55.6599C98.6137 55.3825 98.6623 55.0561 98.6137 54.7297C98.5813 54.5339 98.5002 54.3544 98.4029 54.1749C98.3056 54.0444 98.1272 54.0117 97.9975 54.0933L96.6193 54.9745C96.5868 54.9419 96.5382 54.9092 96.5058 54.8766C96.4247 54.8277 96.3274 54.8113 96.2301 54.8276C96.0842 54.844 95.9382 54.9419 95.7599 55.0724L95.4032 55.3335L94.8843 55.7252L94.4789 55.7088L94.2033 55.6925C93.9276 55.6925 93.8303 56.1821 94.0735 56.5411C94.2843 56.8348 94.4465 57.2264 94.56 57.6997V57.716C94.56 57.7486 94.5762 57.7812 94.5762 57.8139C94.5762 57.8465 94.5924 57.8628 94.5924 57.8955C94.6735 58.3361 94.7221 58.8256 94.7221 59.3968C94.7221 60.6369 94.0573 63.2968 93.1979 65.0265C93.1493 65.1081 93.1169 65.1734 93.0682 65.255L92.4196 66.332C92.3223 66.4952 92.3385 66.7236 92.4683 66.9031C92.5493 67.0337 92.6953 67.1153 92.8736 67.1153C92.8736 67.1153 93.3925 67.768 93.5547 69.0245C93.6357 69.5956 93.6357 70.2973 93.4736 71.1132L92.2575 72.0434L90.9603 73.0388V51.972C91.5765 51.8251 92.2899 51.6619 93.0682 51.515C93.733 51.4335 94.3816 51.3192 95.0789 51.1887ZM126.228 54.6481L125.676 55.0724L124.493 55.9862L126.228 54.6481ZM121.963 57.9281V89.7487L115.915 94.3667V62.5951L121.963 57.9281ZM112.64 58.744L113.158 60.3758H114.861L113.483 61.3876L114.002 63.0194L112.623 62.0077L111.245 63.0194L111.764 61.3876L110.386 60.3758H112.088L112.64 58.744ZM87.9605 61.9914L88.4794 63.6232H90.182L88.8037 64.6349L89.3226 66.2667L87.9443 65.255L86.5661 66.2667L87.0849 64.6349L85.7067 63.6232H87.4092L87.9605 61.9914ZM109.867 67.2621V98.9848L106.851 101.286L103.819 98.9685V71.9128L97.7705 76.5798L97.7705 94.3504L101.711 97.353L89.1929 87.8068L91.7224 89.7323V81.2305L97.7705 76.5635L103.819 71.8965L109.867 67.2621ZM100.754 67.3927L101.289 69.0245H102.992L101.613 70.0362L102.132 71.6681L100.754 70.6563L99.3758 71.6681L99.9109 70.0362L98.5326 69.0245H100.235L100.754 67.3927ZM87.9605 76.6451L88.4794 78.2769H90.182L88.8037 79.2887L89.3226 80.9205L87.9443 79.9088L86.5661 80.9205L87.0849 79.2887L85.7067 78.2769H87.4092L87.9605 76.6451ZM91.2684 81.5732L89.4361 82.9929L87.3282 84.6084L89.4361 82.9929L91.2684 81.5732ZM87.0363 84.8369C87.3282 85.6691 87.766 86.4197 88.3497 87.0725C87.766 86.4197 87.3282 85.6528 87.0363 84.8369ZM125.741 86.5666C125.725 86.5992 125.692 86.6319 125.676 86.6482C125.66 86.6808 125.628 86.7135 125.611 86.7298C125.628 86.6972 125.66 86.6645 125.676 86.6319C125.709 86.6156 125.725 86.5992 125.741 86.5666ZM125.141 87.2683C124.947 87.4641 124.736 87.6436 124.525 87.8068L122.223 89.5528L124.525 87.7905C124.736 87.6436 124.947 87.4478 125.141 87.2683Z" fill="#262F61"/>
<path d="M127.246 79.1023V54.0962L125.852 55.1537L122.095 58.0008V89.7262L124.671 87.7901C125.114 87.4485 125.507 87.0743 125.852 86.635C126.738 85.5124 127.246 84.1132 127.246 82.6653V79.1023ZM115.976 62.6539L109.857 67.3069V98.9347L115.976 94.3304V62.6539ZM97.6018 76.5968V94.3141L103.721 98.9184V71.9437L97.6018 76.5968ZM91.4826 81.2498L89.1858 82.9906L86.7578 84.8291C87.1679 86.0005 87.9062 87.0417 88.9069 87.7901L91.4662 89.7099V81.2498H91.4826Z" fill="#CE3524"/>
<g style="mix-blend-mode:multiply" opacity="0.2">
<path fill-rule="evenodd" clip-rule="evenodd" d="M106.5 113.163C128.958 113.163 147.163 94.9576 147.163 72.5C147.163 50.0424 128.958 31.837 106.5 31.837C84.0424 31.837 65.837 50.0424 65.837 72.5C65.837 94.9576 84.0424 113.163 106.5 113.163ZM106.5 116C130.524 116 150 96.5244 150 72.5C150 48.4756 130.524 29 106.5 29C82.4756 29 63 48.4756 63 72.5C63 96.5244 82.4756 116 106.5 116Z" fill="#191326"/>
</g>
</g>
<defs>
<linearGradient id="paint0_linear" x1="105.757" y1="87.7742" x2="92.3808" y2="138.886" gradientUnits="userSpaceOnUse">
<stop stop-color="#404042"/>
<stop offset="1" stop-color="#48484B"/>
</linearGradient>
<linearGradient id="paint1_linear" x1="46.5673" y1="105.096" x2="41.7353" y2="123.129" gradientUnits="userSpaceOnUse">
<stop stop-color="#404042"/>
<stop offset="1" stop-color="#48484B"/>
</linearGradient>
<linearGradient id="paint2_linear" x1="73.4948" y1="80.1687" x2="89.0896" y2="164.62" gradientUnits="userSpaceOnUse">
<stop stop-color="#404042"/>
<stop offset="1" stop-color="#48484B"/>
</linearGradient>
<clipPath id="clip0">
<rect width="160" height="160" fill="white"/>
</clipPath>
</defs>
</svg>

<svg xmlns="http://www.w3.org/2000/svg" width="160" height="160" fill="none"  xmlns:v="https://vecta.io/nano"><g clip-path="url(#D)"><g fill="#606063"><path d="M48.045 119.028c-3.178 12.144 15 27.421 40.602 34.121s48.934 2.287 52.112-9.858-15-27.421-40.602-34.122-48.934-2.286-52.112 9.859z"/><path d="M136.924 149.273l15.422-16.285-109.354-28.619 5.721 21.818 88.211 23.086z"/><path d="M49.934 108.293L8.072 97.338c-1.814-.475-3.66.654-4.063 2.486l-.468 2.129a8.26 8.26 0 0 0 5.746 9.7l41.812 12.239-1.166-15.599z"/></g><path d="M43.203 98.71c-3.694 14.114 18.324 32.101 49.178 40.176s58.86 3.178 62.554-10.936-18.324-32.101-49.178-40.176-58.861-3.179-62.554 10.935z" fill="url(#A)"/><g fill-rule="evenodd"><path d="M127.673 123.286c7.098 5.22 11.246 10.866 11.865 15.871l2.978-.368c-.772-6.238-5.737-12.531-13.066-17.92-7.389-5.435-17.439-10.148-28.913-13.151s-22.544-3.817-31.649-2.699c-9.029 1.109-16.44 4.163-20.168 9.223l2.415 1.779c2.992-4.06 9.373-6.95 18.119-8.024 8.67-1.064 19.354-.299 30.524 2.624s20.859 7.49 27.896 12.665z" fill="#606063"/><path d="M56.734 118.739c-8.721-7.124-11.998-14.041-10.629-19.27s7.614-9.654 18.706-11.593c10.807-1.889 25.078-1.154 40.186 2.8s27.911 10.304 36.406 17.245c8.721 7.124 11.998 14.041 10.63 19.27s-7.614 9.653-18.707 11.593c-10.806 1.889-25.078 1.153-40.186-2.8s-27.91-10.304-36.406-17.245zm35.646 20.147c-30.854-8.075-52.872-26.062-49.178-40.176s31.7-19.01 62.554-10.935 52.872 26.062 49.178 40.176-31.7 19.01-62.554 10.936z" fill="#979797"/><path d="M45.167 124.049l-4.937-19.123 2.905-.75 4.937 19.123-2.905.75z" fill="url(#B)"/><path d="M43.469 106.189l-.128-.443-.202-.817-.142-.54c.022-.012.03-.019.028-.027l-.004-.025-.12-.794-.022-.191c-.072-.663-.096-1.321-.071-1.974.035-.903.166-1.793.395-2.668 3.694-14.114 31.7-19.01 62.555-10.936s52.872 26.062 49.178 40.176a12.4 12.4 0 0 1-.963 2.519 13.7 13.7 0 0 1-1.635 2.476l-.016.019c.011.02.014.025.015.029l-.611.651-12.932 13.655c-6.807 9.031-27.596 11.752-50.146 5.85-22.303-5.837-38.971-18.182-40.797-29.295-.093-.569-.484-1.054-1.037-1.215L10.127 111.91a8.26 8.26 0 0 1-5.762-9.635l.459-2.172c.39-1.845 2.242-2.99 4.066-2.514l34.249 8.931a.27.27 0 0 0 .331-.331zm-3.657-3.636c-.064-1.544.091-3.085.488-4.603 2.325-8.885 11.93-13.965 23.478-15.984 11.834-2.069 26.992-1.215 42.738 2.906s29.38 10.802 38.683 18.402c9.078 7.417 14.963 16.551 12.638 25.436-.557 2.129-1.552 4.064-2.901 5.789a3.08 3.08 0 0 1-.425.566l-13.429 14.181c-4.171 5.406-12.026 8.46-21.098 9.556-9.3 1.124-20.517.28-32.096-2.751-11.453-2.997-21.548-7.685-29.078-13.141-7.08-5.13-12.321-11.262-13.743-17.657L9.285 114.789a11.26 11.26 0 0 1-7.855-13.134l.459-2.173c.744-3.519 4.277-5.704 7.758-4.796l30.165 7.867z" fill="url(#C)"/></g><circle cx="57" cy="29" r="29" fill="#f0b90b"/><path d="M46.185 29l-4.437 4.468L37.28 29l4.468-4.468L46.185 29zM57 18.185l7.642 7.642 4.468-4.468-7.642-7.611L57 9.28 44.921 21.358l4.468 4.468L57 18.185zm15.252 6.347L67.815 29l4.468 4.468L76.72 29l-4.468-4.468zM57 39.815l-7.642-7.642-4.437 4.468L57 48.72l12.109-12.109-4.468-4.437L57 39.815zm0-6.347L61.468 29 57 24.532 52.532 29 57 33.468z" fill="#fffdfa"/><g style="mix-blend-mode:multiply" opacity=".1"><path fill-rule="evenodd" d="M57 55c14.359 0 26-11.641 26-26S71.359 3 57 3 31 14.641 31 29s11.641 26 26 26zm0 3c16.016 0 29-12.984 29-29S73.016 0 57 0 28 12.984 28 29s12.984 29 29 29z" fill="#191326"/></g><g fill="#fff"><circle cx="106.835" cy="72.5" r="43.5"/><circle cx="106.835" cy="72.5" r="43.5"/></g><path fill-rule="evenodd" d="M106.667 112.394c22.126 0 40.062-17.936 40.062-40.061s-17.936-40.061-40.062-40.061-40.061 17.936-40.061 40.061 17.936 40.061 40.061 40.061zm0 1.933c23.193 0 41.995-18.802 41.995-41.994s-18.802-41.994-41.995-41.994S64.673 49.14 64.673 72.333s18.801 41.994 41.994 41.994z" fill="#262f61"/><path d="M128.919 49.963c0-2.317-1.556-3.034-3.794-3.605-3.259-.865-9.988-2.3-18.29-2.3s-15.031 1.436-18.291 2.3c-2.238.587-3.794 1.289-3.794 3.622v32.53c.032 2.708 1.297 5.269 3.405 6.868l17.35 13.231 1.33 1.011 1.329-1.011 17.35-13.231c2.124-1.615 3.405-4.193 3.405-6.884v-32.53z" fill="#fff"/><path d="M106.835 44.058c-8.319 0-15.031 1.436-18.291 2.301-2.238.587-3.794 1.289-3.794 3.606v32.539c.032 2.709 1.297 5.271 3.405 6.87l18.68 14.246 1.329-1.012 17.35-13.234a8.71 8.71 0 0 0 3.405-6.886V49.965c0-2.317-1.556-3.035-3.794-3.606-3.259-.865-9.972-2.301-18.29-2.301zm-.471 1.681l.519 1.632h1.703l-1.378 1.012.518 1.632-1.378-1.012-1.378 1.012.519-1.632-1.378-1.012h1.702l.551-1.632zm-18.404 2.383l.519 1.632h1.703l-1.378 1.012.519 1.632-1.378-1.012-1.378 1.012.519-1.632-1.378-1.012h1.703l.551-1.632zm36.403 0l.519 1.632h1.702l-1.378 1.012.519 1.632-1.378-1.012-1.379 1.012.519-1.632-1.378-1.012h1.703l.551-1.632zm-8.026 2.725c.162.016.324.049.47.065.47.065.924.131 1.362.212.438.065.875.147 1.281.229l-11.594 8.861v-6.07c1.832 1.093 3.065.979 3.859.473.454-.294.762-.718.957-1.11 1.994.587 4.183-.653 3.665-2.66zm-21.258.343a2.62 2.62 0 0 0 .097.489v.033c.503 1.55 2.562 2.35 4.475 1.795.357.718 1.2 1.354 2.384 1.518.795.114 1.751 0 2.805-.424v7.931l-7.264 5.548a6.01 6.01 0 0 0 .032-.571v-.228c.794-.49 1.492-1.452 1.849-2.676a4.96 4.96 0 0 0 .211-1.583 1.59 1.59 0 0 1-.454.131c-.389.082-.713.049-.713.049.632-.049 1.103-.294 1.394-.522.081-.082.178-.163.292-.277.632-.653 1.037-1.387 1.281-2.268l1.199-4.21c-.616-.065-1.232.245-1.556.767l-.584.914-.567.898c-.13.212-.357.408-.616.555l-.957-.751c-.032-.033-.065-.065-.114-.082l-.373-1.583.551-.979c.162-.277.211-.604.162-.93-.032-.196-.113-.375-.211-.555-.097-.13-.276-.163-.405-.082l-1.378.881c-.032-.033-.081-.065-.114-.098-.081-.049-.178-.065-.276-.049-.146.016-.292.114-.47.245l-.357.261-.519.392-.405-.016-.276-.016c-.276 0-.373.49-.13.849.211.294.373.685.487 1.159v.016c0 .033.016.065.016.098s.016.049.016.082a8.21 8.21 0 0 1 .13 1.501c0 1.24-.665 3.9-1.524 5.63-.049.082-.081.147-.13.228l-.649 1.077c-.097.163-.081.392.049.571.081.131.227.212.405.212 0 0 .519.653.681 1.909.081.571.081 1.273-.081 2.089l-1.216.93-1.297.995V51.972a45.02 45.02 0 0 1 2.108-.457c.665-.081 1.313-.196 2.011-.326zm31.149 3.459l-.552.424-1.183.914 1.735-1.338zm-4.265 3.28v31.821l-6.048 4.618V62.595l6.048-4.667zm-9.323.816l.518 1.632h1.703l-1.378 1.012.519 1.632-1.379-1.012-1.378 1.012.519-1.632-1.378-1.012h1.702l.552-1.632zm-24.68 3.247l.519 1.632h1.703l-1.378 1.012.519 1.632-1.378-1.012-1.378 1.012.519-1.632-1.378-1.012h1.703l.551-1.632zm21.907 5.271v31.723l-3.016 2.301-3.032-2.317V71.913l-6.049 4.667V94.35l3.941 3.003-9.989-7.621v-8.502l12.097-9.334 6.048-4.634zm-9.113.131l.535 1.632h1.703l-1.379 1.012.519 1.632-1.378-1.012-1.378 1.012.535-1.632-1.378-1.012h1.702l.519-1.632zm-12.794 9.252l.519 1.632h1.703l-1.378 1.012.519 1.632-1.378-1.012-1.378 1.012.519-1.632-1.378-1.012h1.703l.551-1.632zm3.308 4.928l-1.832 1.42-2.108 1.615 2.108-1.615 1.832-1.42zm-4.232 3.264c.292.832.73 1.583 1.313 2.236-.584-.653-1.022-1.42-1.313-2.236zm38.705 1.73c-.016.033-.049.065-.065.082-.016.033-.048.065-.065.082.017-.033.049-.065.065-.098.033-.016.049-.033.065-.065zm-.6.702a6.25 6.25 0 0 1-.616.538l-2.302 1.746 2.302-1.762c.211-.147.422-.343.616-.522z" fill="#262f61"/><path d="M127.246 79.102V54.096l-5.151 3.905v31.725l2.576-1.936a6.6 6.6 0 0 0 1.181-1.155 6.43 6.43 0 0 0 1.394-3.97v-3.563zm-11.27-16.448l-6.119 4.653v31.628l6.119-4.604V62.654zM97.602 76.597v17.717l6.119 4.604V71.944l-6.119 4.653zm-6.119 4.653l-4.725 3.579c.41 1.171 1.148 2.213 2.149 2.961l2.559 1.92v-8.46h.016z" fill="#ce3524"/><g style="mix-blend-mode:multiply" opacity=".2"><path fill-rule="evenodd" d="M106.5 113.163c22.458 0 40.663-18.205 40.663-40.663S128.958 31.837 106.5 31.837 65.837 50.042 65.837 72.5s18.205 40.663 40.663 40.663zm0 2.837c24.024 0 43.5-19.476 43.5-43.5S130.524 29 106.5 29 63 48.476 63 72.5 82.476 116 106.5 116z" fill="#191326"/></g></g><defs><linearGradient id="A" x1="105.757" y1="87.774" x2="92.381" y2="138.886" gradientUnits="userSpaceOnUse"><stop stop-color="#404042"/><stop offset="1" stop-color="#48484b"/></linearGradient><linearGradient id="B" x1="46.567" y1="105.096" x2="41.735" y2="123.129" gradientUnits="userSpaceOnUse"><stop stop-color="#404042"/><stop offset="1" stop-color="#48484b"/></linearGradient><linearGradient id="C" x1="73.495" y1="80.169" x2="89.09" y2="164.62" gradientUnits="userSpaceOnUse"><stop stop-color="#404042"/><stop offset="1" stop-color="#48484b"/></linearGradient><clipPath id="D"><path fill="#fff" d="M0 0h160v160H0z"/></clipPath></defs></svg>
